X: 83
T:Love at the Endings
M:C|
L:1/8
C:Ed Reavy
R:Reel
K:D
FE[|:DEFA B2dB|AF~F2 AFEF|DEFA B2AF|GEFD B,EEF|!
DEFA BcdB|AF~F2 ABde|fgfe dfec|1dBAF D2FE:|2dBAF D3g|!
|:fgfe defg|afbf afeg|fgfe dfbf|afdf e2de|!
fgfe dcdB|AF~F2 E2DE|FABc dfec|1dBAF D3g:|2dBAF D2FE|]!
